src/assets/icons/add-btn.svg

<svg width="45" height="45" viewBox="0 0 45 45" fill="none" xmlns="http://www.w3.org/2000/svg">
<path d="M22.3772 44.7543C34.7356 44.7543 44.7543 34.7356 44.7543 22.3772C44.7543 10.0186 34.7356 0 22.3772 0C10.0186 0 0 10.0186 0 22.3772C0 34.7356 10.0186 44.7543 22.3772 44.7543Z" fill="#41A6DE"/>
<path d="M31.328 20.6989H24.0554V13.4263C24.0554 12.5089 23.2946 11.748 22.3771 11.748C21.4597 11.748 20.6989 12.5089 20.6989 13.4263V20.6989H13.4263C12.5088 20.6989 11.748 21.4597 11.748 22.3772C11.748 23.2947 12.5088 24.0555 13.4263 24.0555H20.6989V31.3281C20.6989 32.2455 21.4597 33.0064 22.3771 33.0064C23.2946 33.0064 24.0554 32.2455 24.0554 31.3281V24.0555H31.328C32.2455 24.0555 33.0063 23.2947 33.0063 22.3772C33.0063 21.4597 32.2455 20.6989 31.328 20.6989Z" fill="white"/>
</svg>

<svg width="45" height="45" fill="none" xmlns="http://www.w3.org/2000/svg"><path d="M22.377 44.754c12.359 0 22.377-10.018 22.377-22.377C44.754 10.02 34.736 0 22.377 0 10.02 0 0 10.019 0 22.377c0 12.359 10.019 22.377 22.377 22.377Z" fill="#41A6DE"/><path d="M31.328 20.699h-7.273v-7.273a1.69 1.69 0 0 0-1.678-1.678 1.69 1.69 0 0 0-1.678 1.678V20.7h-7.273a1.69 1.69 0 0 0-1.678 1.678c0 .918.76 1.678 1.678 1.678H20.7v7.273c0 .918.76 1.678 1.678 1.678a1.69 1.69 0 0 0 1.678-1.678v-7.273h7.273a1.69 1.69 0 0 0 1.678-1.678 1.69 1.69 0 0 0-1.678-1.678Z" fill="#fff"/></svg>
